epam-assets/icon-sources/18/bell-outline.svg

<svg width="18" height="18" viewBox="0 0 18 18" fill="none" xmlns="http://www.w3.org/2000/svg">
<g id="18/bell-outline">
<path id="icon" d="M3 14.25V12.75H4.5V7.5C4.5 6.4625 4.8125 5.5405 5.4375 4.734C6.0625 3.928 6.875 3.4 7.875 3.15V2.625C7.875 2.3125 7.9845 2.047 8.2035 1.8285C8.422 1.6095 8.6875 1.5 9 1.5C9.3125 1.5 9.578 1.6095 9.7965 1.8285C10.0155 2.047 10.125 2.3125 10.125 2.625V3.15C11.125 3.4 11.9375 3.928 12.5625 4.734C13.1875 5.5405 13.5 6.4625 13.5 7.5V12.75H15V14.25H3ZM9 16.5C8.5875 16.5 8.2345 16.3533 7.941 16.0597C7.647 15.7657 7.5 15.4125 7.5 15H10.5C10.5 15.4125 10.3533 15.7657 10.0598 16.0597C9.76575 16.3533 9.4125 16.5 9 16.5ZM6 12.75H12V7.5C12 6.675 11.7063 5.96875 11.1187 5.38125C10.5312 4.79375 9.825 4.5 9 4.5C8.175 4.5 7.46875 4.79375 6.88125 5.38125C6.29375 5.96875 6 6.675 6 7.5V12.75Z" fill="#6C6F80"/>
</g>
</svg>

<svg xmlns="http://www.w3.org/2000/svg" width="18" height="18" fill="none" viewBox="0 0 18 18">
  <path fill="#6C6F80" d="M3 14.25v-1.5h1.5V7.5c0-1.037.313-1.96.938-2.766A4.326 4.326 0 0 1 7.874 3.15v-.525c0-.313.11-.578.329-.796.218-.22.483-.329.796-.329.313 0 .578.11.796.329.22.218.329.484.329.796v.525c1 .25 1.813.778 2.438 1.584.624.806.937 1.729.937 2.766v5.25H15v1.5H3Zm6 2.25c-.412 0-.765-.147-1.059-.44A1.445 1.445 0 0 1 7.5 15h3c0 .412-.147.766-.44 1.06A1.45 1.45 0 0 1 9 16.5Zm-3-3.75h6V7.5c0-.825-.294-1.531-.881-2.119A2.889 2.889 0 0 0 9 4.5c-.825 0-1.531.294-2.119.881A2.889 2.889 0 0 0 6 7.5v5.25Z"/>
</svg>
